images/icon-document.svg

<svg height="20" viewBox="0 0 14 20" width="14" xmlns="http://www.w3.org/2000/svg"><path d="m8.8111888 0c-2.2027972 0-6.6083916 0-8.8111888 0v20h13.6063936c0-3.5564435 0-10.66933065 0-14.2257742-1.1988012-1.44355645-3.5964036-4.33066935-4.7952048-5.7742258zm-7.1328672 18.1818182c0-4.0909091 0-12.2727273 0-16.3636364h6.0939062v4.4555444h4.095904v11.948052c0 .01332-1.6983017.01332-5.094905 0-1.69830173-.01332-3.8211789-.02997-5.0949052-.03996zm1.938062-8.971029h6.3736264v.919081c-1.5934066 0-4.7802198 0-6.3736264 0 0-.22977025 0-.68931075 0-.919081zm0 2.7172828h6.3736264v.9190808c-1.5934066 0-4.7802198 0-6.3736264 0 0-.2297702 0-.6893106 0-.9190808zm0 2.7572426h3.6963038v.899101c-.92407595 0-2.77222785 0-3.6963038 0 0-.2247753 0-.6743258 0-.899101z" fill="#01689b"/></svg>

<?xml version="1.0" encoding="UTF-8"?>
<svg width="14px" height="20px" viewBox="0 0 14 20" version="1.1" xmlns="http://www.w3.org/2000/svg" xmlns:xlink="http://www.w3.org/1999/xlink">
    <!-- Generator: Sketch 46.2 (44496) - http://www.bohemiancoding.com/sketch -->
    <title>icon-document</title>
    <desc>Created with Sketch.</desc>
    <defs></defs>
    <g id="Page-1" stroke="none" stroke-width="1" fill="none" fill-rule="evenodd">
        <path d="M8.8111888,0 C6.6083916,0 2.2027972,0 0,0 C0,5 0,15 0,20 C3.4015984,20 10.2047952,20 13.6063936,20 C13.6063936,16.4435565 13.6063936,9.33066935 13.6063936,5.7742258 C12.4075924,4.33066935 10.00999,1.44355645 8.8111888,0 L8.8111888,0 Z M1.6783216,18.1818182 C1.6783216,14.0909091 1.6783216,5.9090909 1.6783216,1.8181818 C3.20179815,1.8181818 6.24875125,1.8181818 7.7722278,1.8181818 C7.7722278,2.9320679 7.7722278,5.1598401 7.7722278,6.2737262 C8.7962038,6.2737262 10.8441558,6.2737262 11.8681318,6.2737262 C11.8681318,9.2607392 11.8681318,15.2347652 11.8681318,18.2217782 C11.8681318,18.2350982 10.1698301,18.2350982 6.7732268,18.2217782 C5.07492507,18.2084582 2.9520479,18.1918082 1.6783216,18.1818182 L1.6783216,18.1818182 Z M3.6163836,9.2107892 C5.2097902,9.2107892 8.3966034,9.2107892 9.99001,9.2107892 C9.99001,9.44055945 9.99001,9.90009995 9.99001,10.1298702 C8.3966034,10.1298702 5.2097902,10.1298702 3.6163836,10.1298702 C3.6163836,9.90009995 3.6163836,9.44055945 3.6163836,9.2107892 L3.6163836,9.2107892 Z M3.6163836,11.928072 C5.2097902,11.928072 8.3966034,11.928072 9.99001,11.928072 C9.99001,12.1578422 9.99001,12.6173826 9.99001,12.8471528 C8.3966034,12.8471528 5.2097902,12.8471528 3.6163836,12.8471528 C3.6163836,12.6173826 3.6163836,12.1578422 3.6163836,11.928072 L3.6163836,11.928072 Z M3.6163836,14.6853146 C4.54045955,14.6853146 6.38861145,14.6853146 7.3126874,14.6853146 C7.3126874,14.9100898 7.3126874,15.3596403 7.3126874,15.5844156 C6.38861145,15.5844156 4.54045955,15.5844156 3.6163836,15.5844156 C3.6163836,15.3596403 3.6163836,14.9100898 3.6163836,14.6853146 L3.6163836,14.6853146 Z" id="icon-document" fill="#01689B" fill-rule="nonzero"></path>
    </g>
</svg>
